X:1
T:Bison Polska
C:Kurt Wahl
L:1/8
M:3/4
K:G
|: EA c2 eg |f2 fe/d/ e2- | eg fd/f/ ag/f/ | ge c2 eg | f2 fe/d/ e2- | eg fe/d/ ec | 
 AE =F2 Ac | BG G3 G- |GB dd BB |c2 ed/c/ dB |1 cA A3 (E :|2 c)A A4 |] 
